icons/svg/text-effects.svg

<svg width="24" height="24" viewBox="0 0 24 24" fill="none" xmlns="http://www.w3.org/2000/svg">
<path fill-rule="evenodd" clip-rule="evenodd" d="M14.4529 12.9283H9.54706L12 7.63001L14.4529 12.9283ZM12 2.74976C12.9741 2.74976 13.8594 3.31551 14.2687 4.19945L20.5187 17.6994C21.0987 18.9524 20.5533 20.4384 19.3003 21.0184C18.0473 21.5985 16.5614 21.053 15.9813 19.8001L14.4203 16.4283H9.57965L8.01866 19.8001C7.43859 21.053 5.95263 21.5985 4.69968 21.0184C3.44673 20.4384 2.90125 18.9524 3.48132 17.6994M8.62114 14.9283H15.3788L17.3425 19.1699C17.5746 19.6711 18.1689 19.8893 18.6701 19.6572C19.1713 19.4252 19.3895 18.8308 19.1575 18.3296L12.9075 4.82963C12.7438 4.47606 12.3896 4.24976 12 4.24976C11.6104 4.24976 11.2562 4.47606 11.0925 4.82963L4.84252 18.3296C4.6105 18.8308 4.82869 19.4252 5.32987 19.6572C5.83105 19.8893 6.42543 19.6711 6.65746 19.1699L8.62114 14.9283ZM12 2.74976C11.0259 2.74976 10.1406 3.31551 9.73132 4.19945L12 2.74976ZM9.73132 4.19945L3.48132 17.6994L9.73132 4.19945Z" fill="currentColor"/>
<path fill-rule="evenodd" clip-rule="evenodd" d="M14.2687 4.19945C13.8594 3.31551 12.9741 2.74976 12 2.74976C11.0259 2.74976 10.1406 3.31551 9.73132 4.19945L3.48132 17.6994C2.90125 18.9524 3.44673 20.4384 4.69968 21.0184C5.95263 21.5985 7.43859 21.053 8.01866 19.8001L9.57965 16.4283H14.4203L15.9813 19.8001C16.5614 21.053 18.0473 21.5985 19.3003 21.0184C20.5533 20.4384 21.0987 18.9524 20.5187 17.6994L14.2687 4.19945ZM8.62114 14.9283H15.3788L17.3425 19.1699C17.5746 19.6711 18.1689 19.8893 18.6701 19.6572C19.1713 19.4252 19.3895 18.8308 19.1575 18.3296L12.9075 4.82963C12.7438 4.47606 12.3896 4.24976 12 4.24976C11.6104 4.24976 11.2562 4.47606 11.0925 4.82963L4.84252 18.3296C4.6105 18.8308 4.82869 19.4252 5.32987 19.6572C5.83105 19.8893 6.42543 19.6711 6.65746 19.1699L8.62114 14.9283Z" fill="currentColor"/>
</svg>

<svg xmlns="http://www.w3.org/2000/svg" width="24" height="24" fill="none" viewBox="0 0 24 24"><path fill="currentColor" fill-rule="evenodd" d="M14.453 12.928H9.547L12 7.63zM12 2.75a2.5 2.5 0 0 1 2.269 1.45l6.25 13.5a2.5 2.5 0 0 1-4.538 2.1l-1.56-3.372H9.58L8.019 19.8a2.5 2.5 0 0 1-4.538-2.1m5.14-2.772h6.758l1.964 4.242a1 1 0 1 0 1.814-.84l-6.25-13.5a1 1 0 0 0-1.815 0l-6.25 13.5a1 1 0 0 0 1.815.84zM12 2.75A2.5 2.5 0 0 0 9.731 4.2zM9.731 4.2l-6.25 13.5z" clip-rule="evenodd"/><path fill="currentColor" fill-rule="evenodd" d="M14.269 4.2a2.5 2.5 0 0 0-4.538 0l-6.25 13.5a2.5 2.5 0 0 0 4.538 2.1l1.56-3.372h4.841l1.561 3.372a2.5 2.5 0 0 0 4.538-2.1zM8.62 14.927h6.758l1.964 4.242a1 1 0 1 0 1.814-.84l-6.25-13.5a1 1 0 0 0-1.815 0l-6.25 13.5a1 1 0 0 0 1.815.84z" clip-rule="evenodd"/></svg>
